X:43
T:Annie is My Darling
C:Simon Fraser
R:reel
O:19th Scottish
S:http://www.cranfordpub.com
D:Brenda Stubbert, Music All Around, 2003
M:C|
L:1/8
K:A
B|A2 AE CEAB|c/ez/Bc AFFG|A/A/A AE CEAd|cAec B2 A:|
d|ce e/e/e c/ez/f/az/|edcA BFFd|ce e/e/e ce =g2|f=ga=g fefb|
agfe fbaf|ecdB cAFG|A/cz/EA CEAd|cAec B2 A|]
